src/img/phone.svg

<svg fill="none" height="18" viewBox="0 0 18 18" width="18" xmlns="http://www.w3.org/2000/svg"><path d="m17.4375 12.9375s-3.6-2.5875-4.6125-2.475c-.45.1125-.7875.45-1.2375 1.0125-.1125.1125-.3375.3375-.45.5625-.3375-.1125-.675-.225-1.0125-.45-1.6875-.675-3.0375-2.025-3.825-3.7125-.1125-.3375-.3375-.675-.45-1.0125.225-.1125.45-.3375.5625-.45.675-.45 1.0125-.7875 1.0125-1.2375.225-1.0125-2.3625-4.6125-2.475-4.6125-.1125-.3375-.5625-.5625-.9-.5625-1.125 0-4.05 3.825-4.05 4.5 0 0 0 3.825 4.8375 8.6625 4.725 4.8375 8.6625 4.8375 8.6625 4.8375.675 0 4.5-2.925 4.5-4.05 0-.3375-.225-.7875-.5625-1.0125z" fill="#bcc9da"/></svg>

<svg width="18" height="18" viewBox="0 0 18 18" fill="none" xmlns="http://www.w3.org/2000/svg">
<path d="M17.4375 12.9375C17.4375 12.9375 13.8375 10.35 12.825 10.4625C12.375 10.575 12.0375 10.9125 11.5875 11.475C11.475 11.5875 11.25 11.8125 11.1375 12.0375C10.8 11.925 10.4625 11.8125 10.125 11.5875C8.4375 10.9125 7.0875 9.5625 6.3 7.875C6.1875 7.5375 5.9625 7.2 5.85 6.8625C6.075 6.75 6.3 6.525 6.4125 6.4125C7.0875 5.9625 7.425 5.625 7.425 5.175C7.65 4.1625 5.0625 0.5625 4.95 0.5625C4.8375 0.225 4.3875 0 4.05 0C2.925 0 0 3.825 0 4.5C0 4.5 0 8.325 4.8375 13.1625C9.5625 18 13.5 18 13.5 18C14.175 18 18 15.075 18 13.95C18 13.6125 17.775 13.1625 17.4375 12.9375Z" fill="#BCC9DA"/>
</svg>
